images/basket.svg

<svg width="18" height="18" viewBox="0 0 18 18" fill="none" xmlns="http://www.w3.org/2000/svg">
<g clip-path="url(#clip0)">
<path d="M17.6292 3.39392H7.13201C7.05847 3.38671 6.98451 3.40072 6.91726 3.43459C6.85001 3.46846 6.79174 3.52106 6.74808 3.5873C6.70442 3.65355 6.67684 3.7312 6.668 3.81276C6.65917 3.89432 6.66938 3.97704 6.69765 4.05293L8.35808 9.46585C8.40646 9.61525 8.49373 9.74523 8.60875 9.83922C8.72377 9.93321 8.86134 9.98696 9.00392 9.9936H15.8856C16.0282 9.98696 16.1659 9.93321 16.281 9.8392C16.3961 9.74519 16.4835 9.61517 16.5319 9.4657L17.9781 3.92316C18.0007 3.8622 18.0088 3.79578 18.0017 3.73031C17.9945 3.66484 17.9724 3.60252 17.9373 3.54934C17.9023 3.49616 17.8555 3.45391 17.8016 3.42666C17.7476 3.39942 17.6882 3.38809 17.6292 3.39377V3.39392Z" fill="black"/>
<path d="M9.6517 16.2298C9.6517 16.5754 9.55962 16.9132 9.38711 17.2005C9.21459 17.4878 8.96939 17.7118 8.68252 17.844C8.39564 17.9762 8.07997 18.0108 7.77542 17.9434C7.47087 17.876 7.19113 17.7096 6.97156 17.4653C6.75199 17.2209 6.60246 16.9096 6.54189 16.5707C6.48131 16.2317 6.5124 15.8804 6.63123 15.5612C6.75006 15.2419 6.95129 14.969 7.20947 14.777C7.46765 14.5851 7.77119 14.4826 8.08171 14.4826C8.28788 14.4826 8.49204 14.5278 8.68252 14.6156C8.873 14.7034 9.04607 14.8321 9.19186 14.9943C9.33764 15.1566 9.45329 15.3492 9.53219 15.5612C9.61109 15.7731 9.6517 16.0003 9.6517 16.2298Z" fill="black"/>
<path d="M16.2955 16.2511C16.2955 16.5967 16.2034 16.9345 16.0309 17.2218C15.8584 17.5092 15.6132 17.7331 15.3263 17.8654C15.0394 17.9976 14.7238 18.0322 14.4192 17.9648C14.1147 17.8974 13.8349 17.731 13.6154 17.4866C13.3958 17.2423 13.2463 16.9309 13.1857 16.592C13.1251 16.2531 13.1562 15.9018 13.275 15.5825C13.3939 15.2633 13.5951 14.9904 13.8533 14.7984C14.1115 14.6064 14.415 14.5039 14.7255 14.5039C15.1418 14.5042 15.541 14.6883 15.8354 15.0159C16.1298 15.3436 16.2953 15.7878 16.2955 16.2511Z" fill="black"/>
<path d="M16.6117 11.7713H7.42712L3.7512 0H0.889124C0.653314 3.91049e-09 0.427162 0.104249 0.260418 0.289815C0.0936753 0.47538 0 0.72706 0 0.989489C0 1.25192 0.0936753 1.5036 0.260418 1.68916C0.427162 1.87473 0.653314 1.97898 0.889124 1.97898H2.48689L6.16281 13.7502H16.6117C16.7285 13.7502 16.8441 13.7247 16.952 13.6749C17.0598 13.6252 17.1578 13.5523 17.2404 13.4604C17.323 13.3686 17.3885 13.2595 17.4331 13.1394C17.4778 13.0194 17.5008 12.8907 17.5008 12.7608C17.5008 12.6308 17.4778 12.5021 17.4331 12.3821C17.3885 12.262 17.323 12.153 17.2404 12.0611C17.1578 11.9692 17.0598 11.8963 16.952 11.8466C16.8441 11.7969 16.7285 11.7713 16.6117 11.7713Z" fill="black"/>
</g>
<defs>
<clipPath id="clip0">
<rect width="18" height="18" fill="white"/>
</clipPath>
</defs>
</svg>

<svg width="18" height="18" fill="none" xmlns="http://www.w3.org/2000/svg"><g clip-path="url(#clip0)" fill="#000"><path d="M17.63 3.394H7.131a.391.391 0 00-.215.04.442.442 0 00-.169.153.527.527 0 00-.05.466l1.66 5.413c.048.15.136.28.25.373a.674.674 0 00.396.155h6.882a.674.674 0 00.395-.155.798.798 0 00.25-.373l1.447-5.543a.425.425 0 00-.04-.374.355.355 0 00-.136-.122.315.315 0 00-.173-.033zM9.652 16.23c0 .345-.092.683-.265.97a1.62 1.62 0 01-.704.644 1.423 1.423 0 01-.908.1 1.528 1.528 0 01-.803-.479 1.816 1.816 0 01-.43-.894c-.06-.34-.03-.69.09-1.01.118-.32.32-.592.577-.784a1.433 1.433 0 011.473-.161c.191.087.364.216.51.378.146.163.261.355.34.567.08.212.12.44.12.669zm6.644.021c0 .346-.093.683-.265.97a1.62 1.62 0 01-.705.644 1.423 1.423 0 01-.907.1 1.527 1.527 0 01-.804-.478 1.816 1.816 0 01-.43-.895c-.06-.339-.029-.69.09-1.01.119-.319.32-.592.578-.784a1.46 1.46 0 01.873-.294c.416 0 .815.184 1.11.512.294.328.46.772.46 1.235z"/><path d="M16.612 11.771H7.427L3.751 0H.89a.846.846 0 00-.63.29C.094.475 0 .727 0 .99c0 .262.094.514.26.7a.848.848 0 00.63.289h1.597L6.163 13.75h10.449a.81.81 0 00.34-.075.89.89 0 00.288-.215 1 1 0 00.193-.32 1.086 1.086 0 000-.758 1 1 0 00-.193-.32.89.89 0 00-.288-.215.812.812 0 00-.34-.076z"/></g><defs><clipPath id="clip0"><path fill="#fff" d="M0 0h18v18H0z"/></clipPath></defs></svg>
